X:1
T: Mrs. Gordon of Baird
C:
R:Jig
Q:180
K:F
M:6/8
L:1/16
|:c'4f2 f2e2f2|g4c2 c2=B2c2|a4f2 c'2a2f2|e2g4 g2a2b2|
|1c'4f2 f2e2f2|g4c2 c2d2e2|f4a2 g2e2c2|f6 f2e2f2:|
|2a4f2 c'2a2f2|g4e2 b2g2e2|f4a2 g2e2c2|f6f4B2|
|:A4c2 c2f2a2|B4d2 d2f2d2|c2A2F2 c2A2F2|E2G4 G2A2B2|
A4c2 c2f2a2|B4d2 d2f2b2|a2f2a2 g2e2g2|1f6 f2c2B2:|2f6f6||
